icons/outline/building-off.svg

<!--
category: Buildings
tags: [flat, office, city, urban, scyscraper, architecture, construction]
unicode: "fefd"
version: "3.6"
-->
<svg
  xmlns="http://www.w3.org/2000/svg"
  width="24"
  height="24"
  viewBox="0 0 24 24"
  fill="none"
  stroke="currentColor"
  stroke-width="2"
  stroke-linecap="round"
  stroke-linejoin="round"
>
  <path d="M3 21h18m-12 -9h1m-1 4h1m4 -8h1m-1 8h1m-10 5v-16m2 -2h10c1 0 2 1 2 2v10m0 4v2m-16 -18l18 18" />
</svg>

<!--
category: Buildings
tags: [flat, office, city, urban, scyscraper, architecture, construction]
unicode: "fefd"
version: "3.6"
-->
<svg
  xmlns="http://www.w3.org/2000/svg"
  width="24"
  height="24"
  viewBox="0 0 24 24"
  fill="none"
  stroke="currentColor"
  stroke-width="2"
  stroke-linecap="round"
  stroke-linejoin="round"
>
    <path d="M3 21h18M9 12h1M9 16h1M14 8h1M14 16h1M5 21v-16M7 3h10c1 0 2 1 2 2v10M19 19v2M3 3l18 18" />
</svg>
